X:1
T:Title
%%score { ( 1 3 ) | 2 }
L:1/8
Q:1/4=100
M:4/4
K:G
V:1 treble nm="Grand Piano"
V:3 treble 
V:2 bass 
V:1
 [B,D][B,D][CE][CF] [B,G][B,G][DF][CE] | [B,D][B,D][B,G][B,G] [DB]4 | %2
w: William~J.~Kirkpatrick * * * * * * *||
 [CE][CE][Ec][Ec] [EB]2 [A,EA]2 | [B,DG]2 [CDF]2 [B,DG]4 | [B,D][B,D][CE][CF] [B,G][B,G][DF][CE] | %5
w: |||
 [B,D][B,D][B,G][B,G] [DB]4 | [CE][CE][Ec][Ec] [EB]2 [A,EA]2 | [B,DG]2 [CDF]2 [B,DG]4 | d4 d4 | %9
w: ||||
 GABc d4 | [DAc][DAc][DGB][DGB] [DFA][DFA][^CEG][CEG] | FFGG A4 | DDEF [B,G]4 | GGAB c4 | %14
w: |||||
 [Ec][Ec][DB][DA] [Dd][Dd][DB][B,G] | DDBA [B,G]4 |] %16
w: ||
V:2
 [G,,G,][G,,G,][G,,F,][G,,E,] [G,,D,][G,,D,][G,,G,][G,,G,] | %1
 [G,,G,][G,,G,][G,,D,][G,,D,] [G,,G,]4 | [C,G,][C,G,][A,,A,][A,,A,] [B,,^G,]2 C,2 | D,2 D,2 G,,4 | %4
 [G,,G,][G,,G,][G,,F,][G,,E,] [G,,D,][G,,D,][G,,G,][G,,G,] | %5
 [G,,G,][G,,G,][G,,D,][G,,D,] [G,,G,]4 | [C,G,][C,G,][A,,A,][A,,A,] [B,,^G,]2 C,2 | D,2 D,2 G,,4 | %8
 D,F,A,C D,F,A,C | G,A,B,[K:treble]C [G,B,G]4 | F,F,G,G, A,A,A,,A,, | %11
 [D,A,D][D,A,D][E,A,^C][E,A,C] [F,=CD]4 | [D,F,C][D,F,C][D,G,C][D,A,C] [G,,G,]4 | %13
 [G,B,D][G,B,D][F,A,D][=F,G,D] [E,G,C]4 | [C,G,][C,G,][D,G,][D,F,] [B,,G,][B,,G,][G,,G,][G,,G,] | %15
 [D,F,C][D,F,C][D,F,C][D,F,C] [G,,G,]4 |] %16
V:3
 x8 | x8 | x8 | x8 | x8 | x8 | x8 | x8 | D-[D-A][DF]D D-[D-A][DF]D | x8 | x8 | x8 | x8 | x8 | x8 | %15
 x8 |] %16

